svgs/:devonthink3:.svg

<svg width="24" height="24" viewBox="0 0 24 24" fill="none" xmlns="http://www.w3.org/2000/svg">
<path d="M5 0C3.67392 0 2.40215 0.526784 1.46447 1.46447C0.526784 2.40215 0 3.67392 0 5L0 19C0 19.6566 0.129329 20.3068 0.380602 20.9134C0.631876 21.52 1.00017 22.0712 1.46447 22.5355C2.40215 23.4732 3.67392 24 5 24H19C19.6566 24 20.3068 23.8707 20.9134 23.6194C21.52 23.3681 22.0712 22.9998 22.5355 22.5355C22.9998 22.0712 23.3681 21.52 23.6194 20.9134C23.8707 20.3068 24 19.6566 24 19V5C24 4.34339 23.8707 3.69321 23.6194 3.08658C23.3681 2.47995 22.9998 1.92876 22.5355 1.46447C22.0712 1.00017 21.52 0.631876 20.9134 0.380602C20.3068 0.129329 19.6566 0 19 0L5 0ZM14.916 6.223C15.935 7.751 16.003 9.706 15.595 11.255L21.163 14.292L20.947 14.724C20.587 15.443 19.475 17.144 17.8 18.4C16.679 19.241 15.18 19.498 13.964 19.562C13.346 19.594 12.78 19.578 12.34 19.554C12.128 19.542 11.944 19.529 11.8 19.519L11.783 19.517C11.625 19.506 11.54 19.5 11.5 19.5C11.379 19.5 11.232 19.473 11.099 19.445C10.955 19.413 10.784 19.37 10.598 19.317C9.73207 19.0676 8.88356 18.7612 8.058 18.4C7.87 18.314 7.695 18.227 7.546 18.142C7.405 18.06 7.256 17.964 7.146 17.854C6.86 17.567 6.337 16.907 5.825 16.075C5.31 15.239 4.782 14.19 4.515 13.121C3.98 10.98 4.519 9.361 5.017 7.868L5.026 7.842C5.319 6.962 6.029 6.131 6.903 5.526C7.782 4.918 8.88 4.5 10 4.5H10.043C11.009 4.5 11.936 4.5 12.746 4.703C13.603 4.917 14.339 5.358 14.916 6.223ZM14.084 6.777C14.972 8.109 14.992 9.931 14.53 11.329C14.5151 11.3668 14.5008 11.4048 14.487 11.443C14.274 11.93 13.73 12.321 13.057 12.601C12.353 12.895 11.669 13 11.5 13C11.355 13 10.84 12.908 10.37 12.543C9.928 12.2 9.5 11.595 9.5 10.5C9.5 9.663 9.838 9.188 10.23 8.906C10.647 8.606 11.163 8.5 11.5 8.5C11.559 8.5 11.72 8.552 11.92 8.752C12.107 8.939 12.262 9.192 12.33 9.444C12.398 9.692 12.373 9.897 12.274 10.05C12.176 10.205 11.944 10.401 11.402 10.51L11.598 11.49C12.307 11.348 12.824 11.045 13.116 10.59C13.408 10.135 13.415 9.62 13.295 9.18C13.1724 8.75105 12.9425 8.36042 12.627 8.045C12.343 7.761 11.941 7.5 11.5 7.5C11.003 7.5 10.27 7.645 9.645 8.094C8.995 8.562 8.5 9.337 8.5 10.5C8.5 11.905 9.072 12.8 9.756 13.332C10.411 13.842 11.146 14 11.5 14C11.831 14 12.647 13.855 13.442 13.524C13.6951 13.4196 13.9398 13.2959 14.174 13.154L14.175 13.274C14.194 14.014 14.424 14.859 15.181 15.388C15.493 15.688 16.305 16.346 17.34 16.553C17.652 16.615 17.988 16.637 18.334 16.594C17.9829 16.9585 17.6037 17.2948 17.2 17.6C16.321 18.259 15.07 18.502 13.911 18.563C13.341 18.593 12.814 18.578 12.394 18.555C12.2196 18.5454 12.0452 18.534 11.871 18.521L11.843 18.519H11.838C11.7259 18.509 11.6135 18.5027 11.501 18.5C11.501 18.5 11.487 18.5 11.453 18.494C11.4054 18.4865 11.358 18.4775 11.311 18.467C11.1632 18.4341 11.0165 18.3967 10.871 18.355C10.0536 18.1199 9.25254 17.8312 8.473 17.491C8.32684 17.4255 8.18369 17.3534 8.044 17.275C7.97635 17.2391 7.91267 17.1962 7.854 17.147C7.64 16.933 7.164 16.343 6.676 15.551C6.19 14.761 5.718 13.811 5.486 12.879C5.024 11.033 5.475 9.658 5.974 8.159C6.181 7.539 6.721 6.869 7.472 6.349C8.218 5.832 9.121 5.5 10 5.5C11.018 5.5 11.826 5.503 12.504 5.673C13.148 5.833 13.661 6.143 14.084 6.777ZM15.174 13.25C15.166 12.899 15.219 12.54 15.294 12.23L19.754 14.663C19.407 15.075 19.064 15.318 18.747 15.455C18.332 15.635 17.922 15.649 17.536 15.572C16.736 15.412 16.072 14.865 15.854 14.646L15.819 14.611L15.777 14.584C15.368 14.311 15.19 13.839 15.175 13.25H15.174Z" fill="black"/>
</svg>

<svg viewBox="0 0 24 24" width="24" height="24" data-reactroot=""><path fill-rule="evenodd" clip-rule="evenodd" d="M5 0a5 5 0 0 0-5 5v14a5 5 0 0 0 5 5h14a5 5 0 0 0 5-5V5a5 5 0 0 0-5-5H5Zm9.916 6.223c-.577-.865-1.313-1.306-2.17-1.52-.81-.203-1.737-.203-2.703-.203H10c-1.12 0-2.218.418-3.097 1.026-.874.605-1.584 1.436-1.877 2.316l-.009.026c-.498 1.493-1.037 3.112-.502 5.253.267 1.069.795 2.118 1.31 2.954.512.832 1.035 1.492 1.321 1.779.11.11.259.206.4.288.149.085.324.172.512.258a20.47 20.47 0 0 0 2.54.917c.186.053.357.096.501.128.133.028.28.055.401.055.04 0 .125.006.283.017l.017.002c.144.01.328.023.54.035.44.024 1.006.04 1.624.008 1.216-.064 2.715-.321 3.836-1.162 1.675-1.256 2.787-2.957 3.147-3.676l.216-.432-5.568-3.037c.408-1.549.34-3.504-.679-5.032Zm-.832.554c.888 1.332.908 3.154.446 4.552a4.398 4.398 0 0 0-.043.114c-.213.487-.757.878-1.43 1.158-.704.294-1.388.399-1.557.399-.145 0-.66-.092-1.13-.457-.442-.343-.87-.948-.87-2.043 0-.837.338-1.312.73-1.594.417-.3.933-.406 1.27-.406.059 0 .22.052.42.252.187.187.342.44.41.692.068.248.043.453-.056.606-.098.155-.33.351-.872.46l.196.98c.709-.142 1.226-.445 1.518-.9.292-.455.299-.97.179-1.41a2.625 2.625 0 0 0-.668-1.135c-.284-.284-.686-.545-1.127-.545-.497 0-1.23.145-1.855.594C8.995 8.562 8.5 9.337 8.5 10.5c0 1.405.572 2.3 1.256 2.832.655.51 1.39.668 1.744.668.331 0 1.147-.145 1.942-.476a5.34 5.34 0 0 0 .732-.37l.001.12c.019.74.249 1.585 1.006 2.114.312.3 1.124.958 2.159 1.165.312.062.648.084.994.041A9.678 9.678 0 0 1 17.2 17.6c-.879.659-2.13.902-3.289.963-.57.03-1.097.015-1.517-.008a27.053 27.053 0 0 1-.523-.034l-.028-.002h-.005a5.156 5.156 0 0 0-.337-.019s-.014 0-.048-.006a2.31 2.31 0 0 1-.142-.027 7.587 7.587 0 0 1-.44-.112 19.41 19.41 0 0 1-2.398-.864 5.345 5.345 0 0 1-.429-.216 1.092 1.092 0 0 1-.19-.128c-.214-.214-.69-.804-1.178-1.596-.486-.79-.958-1.74-1.19-2.672-.462-1.846-.011-3.221.488-4.72.207-.62.747-1.29 1.498-1.81C8.218 5.832 9.121 5.5 10 5.5c1.018 0 1.826.003 2.504.173.644.16 1.157.47 1.58 1.104Zm1.09 6.473c-.008-.351.045-.71.12-1.02l4.46 2.433c-.347.412-.69.655-1.007.792-.415.18-.825.194-1.211.117-.8-.16-1.464-.707-1.682-.926l-.035-.035-.042-.027c-.409-.273-.587-.745-.602-1.334Z"></path></svg>
